packages/foundations/assets/icons/functional/images/maps/location_pin_24_filled.svg

<svg xmlns="http://www.w3.org/2000/svg" width="20" height="20" fill="none"><path fill="#1A1C1F" fill-rule="evenodd" d="M9.42 2.037a5.3 5.3 0 0 0-2.368.853c-.381.252-.977.827-1.229 1.183-.614.871-.874 1.84-.79 2.941.07.91.295 1.512.975 2.601 1.499 2.4 3.115 4.864 3.351 5.108a.84.84 0 0 0 .732.267c.481-.05.554-.139 2.148-2.623a397 397 0 0 0 1.97-3.1c.343-.556.612-1.238.711-1.802.075-.428.074-1.319-.001-1.675a4.5 4.5 0 0 0-1.302-2.351c-1.09-1.05-2.637-1.567-4.197-1.402m1.093 3.049c.589.144 1.144.658 1.354 1.257.285.81.042 1.646-.645 2.216-.221.184-.44.29-.769.374a1.64 1.64 0 0 1-.906 0c-.385-.097-.638-.234-.892-.482a2.05 2.05 0 0 1-.522-.768c-.105-.276-.131-.873-.05-1.183a1.97 1.97 0 0 1 1.053-1.28c.448-.221.854-.261 1.377-.134M6.783 16.03c-1.233.022-1.197.016-1.463.282-.213.213-.303.423-.302.705.001.274.062.413.299.676.28.312-.074.29 4.683.29 4.781 0 4.397.026 4.702-.308.227-.249.276-.367.278-.675.003-.301-.073-.493-.275-.695-.286-.286.021-.262-3.605-.28a293 293 0 0 0-4.317.005"/></svg>

<svg width="20" height="20" viewBox="0 0 20 20" fill="none" xmlns="http://www.w3.org/2000/svg"><path d="M9.420 2.037 C 8.578 2.125,7.764 2.419,7.052 2.890 C 6.671 3.142,6.075 3.717,5.823 4.073 C 5.209 4.944,4.949 5.913,5.033 7.014 C 5.103 7.924,5.328 8.526,6.008 9.615 C 7.507 12.015,9.123 14.479,9.359 14.723 C 9.560 14.932,9.801 15.020,10.091 14.990 C 10.572 14.940,10.645 14.851,12.239 12.367 C 13.018 11.151,13.964 9.663,14.209 9.267 C 14.552 8.711,14.821 8.029,14.920 7.465 C 14.995 7.037,14.994 6.146,14.919 5.790 C 14.723 4.868,14.290 4.087,13.617 3.439 C 12.527 2.389,10.980 1.872,9.420 2.037 M10.513 5.086 C 11.102 5.230,11.657 5.744,11.867 6.343 C 12.152 7.153,11.909 7.989,11.222 8.559 C 11.001 8.743,10.782 8.849,10.453 8.933 C 10.120 9.018,9.881 9.018,9.547 8.933 C 9.162 8.836,8.909 8.699,8.655 8.451 C 8.402 8.205,8.243 7.971,8.133 7.683 C 8.028 7.407,8.002 6.810,8.083 6.500 C 8.228 5.940,8.605 5.483,9.136 5.220 C 9.584 4.999,9.990 4.959,10.513 5.086 M6.783 16.030 C 5.550 16.052,5.586 16.046,5.320 16.312 C 5.107 16.525,5.017 16.735,5.018 17.017 C 5.019 17.291,5.080 17.430,5.317 17.693 C 5.597 18.005,5.243 17.983,10.000 17.983 C 14.781 17.983,14.397 18.009,14.702 17.675 C 14.929 17.426,14.978 17.308,14.980 17.000 C 14.983 16.699,14.907 16.507,14.705 16.305 C 14.419 16.019,14.726 16.043,11.100 16.025 C 9.331 16.017,7.388 16.019,6.783 16.030 " fill="#1A1C1F" stroke="none" fill-rule="evenodd"></path></svg>
